X:1
T:The End Is Not Yet
T:William Edie Marks
T:The End Is Not Yet
T:Public Domain
T:Public Domain
T:Public Domain
C:William Edie Marks
Z:Public Domain
%%score ( 1 2 ) ( 3 4 )
L:1/8
M:4/4
K:Ab
V:1 treble 
V:2 treble 
V:3 bass 
V:4 bass 
V:1
 [A,C][B,D] | [CE][Ec][Ec][DB] [DB][CA][CE][EA] | [DA][DG][EG][FA] [GB]2 E[EF] | %3
w: 1.~I have|tried to count His bless- ings, and I|fail to un- der- stand Why the|
w: 2.~Like an|ar- my I be- hold them pass be-|fore me in re- view, O what|
w: 3.~Sure- ly|good- ness, love and mer- cy have been|mine a- long life’s way, And my|
 ([EG][FA])[GB][Ac] [Bd]2 [Ac]>[GB] | [Ac]6 A[AB] | [Ac][Ae][Ae][Ec] [DB][CA]EE | %6
w: should * so rich- ly re- ward;|Could I count|stars of heav- en, add to them earth’s|
w: doth * the sight now af- ford!|Tho’ they may|long in pass- ing, still they come, bat-|
w: heart * to strength is re- stored;|And my cup|joy and glad- ness keeps o’er- flow- ing,|
 [DF][DF][FA][FA] [Fd]2 [DF][DF] | ([CE][DF])[EG][EA] [Ec]2 [DB]>[DB] | [CA]6 || %9
w: sand, Still His bless- ings are more,|praise * the Lord! And the end|is|
w: new, And the end is not yet,|praise * the Lord! * * *||
w: day, And the end is not yet,|praise * the Lord! * * *||
"^Refrain" [A,C][B,D] | ([CE][Ec])[Ec][Ec] [Ec]2 [CA]>[DF] | (C2 DD E2) [CE][CE] | %12
w: not yet,|praise * the Lord, And the end|is * * * not yet,|
w: |||
w: |||
 (EF)[EG][FA] [GB]2 [Gd]>[Gd] | (AAAA A2) [Ec][Ec] | [=Ec][Ed][Ec][EG] [GB][FA][FA][FA] | %15
w: the * Lord; Bless- ings new He’s|be- * * * * stow- ing,|my cup is o- ver- flow- ing, And|
w: |||
w: |||
 [=DB][Dc][DB][DF] [_DA][EG][DF][DE] | ([CE][DF])[EG][EA] [Ac]2 [GB]>[GB] | (z E F>F) E2 |] %18
w: the end is not yet, praise the Lord!|||
w: |||
w: |||
V:2
 x2 | x8 | x6 E x | x8 | x6 A x | x6 EE | x8 | x8 | x6 || x2 | x8 | E6 x2 | B,2 x6 | c6 x2 | x8 | %15
w: ||Lord||the|grains of||||||praise|still|And||
w: ||joy||be|tal- ions||||||||||
w: ||weak||of|day by||||||||||
 x8 | x8 | A6 |] %18
w: |||
w: |||
w: |||
V:3
 [A,,E,][A,,E,] | [A,,E,][A,,A,][A,,A,][A,,A,] [A,,E,][A,,E,][A,,A,][A,,C] | %2
w: ~ ~|~ ~ ~ ~ ~ ~ ~ ~|
 [E,B,][E,B,][E,B,][E,B,] [E,B,]2 [E,G,][E,A,] | [E,B,]2 [E,E][E,E] [E,E]2 [E,E]>[E,E] | %4
w: ~ ~ ~ ~ ~ ~ ~|~ ~ ~ ~ ~ ~|
 [A,E]6 [A,C][A,D] | [A,E][A,C][A,C]A, A,A,[C,A,][C,A,] | %6
w: ~ ~ ~|~ ~ ~ ~ ~ ~ ~ ~|
 [D,A,][D,A,][D,A,][D,A,] [D,A,]2 [D,A,][D,A,] | [E,A,]2 [E,B,][E,C] [E,A,]2 [E,G,]>[E,G,] | %8
w: ~ ~ ~ ~ ~ ~ ~|~ ~ ~ ~ ~ ~|
 [A,,A,]6 || [A,,E,][A,,E,] | [A,,A,]2 [A,,A,][A,,A,] [A,,A,]2 [A,,A,]>[A,,A,] | %11
w: ~|~ ~|~ ~ ~ ~ praise the|
 [A,,A,]2 [B,,G,][B,,G,] [C,A,]2 [A,,A,][A,,A,] | (G,A,)[E,B,][E,B,] [E,E]2 [E,E]>[E,E] | %13
w: Lord, ~ ~ ~ ~ ~|~ * ~ ~ O praise the|
 A,A,E,C, A,,2 [A,,A,][A,,A,] | [C,G,][C,G,][C,G,][C,C] [F,C][F,C][F,C][F,C] | %15
w: ~ ~ ~ ~ ~ ~ ~|~ ~ ~ ~ ~ ~ ~ ~|
 [B,,A,][B,,A,][B,,F,][B,,B,] [E,B,][E,B,][F,A,][G,B,] | A,2 [A,B,][A,C] [E,E]2 [E,D]>[E,D] | %17
w: ~ ~ ~ ~ ~ ~ ~ ~|~ ~ O praise the Lord.|
 CC D>D C2 |] %18
w: |
V:4
 x2 | x8 | x8 | x8 | x8 | x3 A, A,A, x2 | x8 | x8 | x6 || x2 | x8 | x8 | E,2 x6 | E6 x2 | x8 | x8 | %16
w: |||||~ ~ ~|||||||Lord,|~|||
 A,2 x6 | A,,6 |] %18
w: ||

